X: 37357
T: Slängpolska Efter Byss-Kalle
R: waltz
M: 3/4
K: Gmajor
d>B GG B/G/B/d/|A>B GG B/G/B/d/|c/B/c/e/ dB/d/ c/B/A/G/|F/G/A/B/ A/G/F/E/ D2|
d>B GG B/G/B/d/|A>B GG B/G/B/d/|c/B/c/e/ dB/d/ c/B/A/G/|F/G/A/B/ AB/A/ G2:|
|:dd de/f/ gg|gf/e/ de/f/ gB|c/B/c/e/ dB/d/ c/B/A/G/|F/G/A/B/ A/G/F/E/ D2|
dd de/f/ gg|gf/e/ de/f/ gB|c/B/c/e/ dB/d/ c/B/A/G/|F/G/A/B/ AB/A/ G2:|

